X:744
T:Nights of Gladness, 1st figure
C:Roche: Collection of Traditional Irish Music, vol. 3, 1927
R:Jig
S:Colin Hume's website,  colinhume.com  - chords can also be printed below the stave.
Q:3/8=112
M:6/8
L:1/8
K:D
P:A
"D"OA2A "A7"ABc | "D"d2A FDF | "A7"A2G EFG | "D"B2A FDF |\
"D"A2A "A7"ABc | "D"dfd A2F | "A7"GBA GFE | "D"D3-D2 ||
P:B
A | "D"f2d AFA | f2d AFA | "A7"g2e cde | dcB A2A |\
"D"f2d AFA | f2d A2A | "A7"Aef gfe | "Bm"dfe "A7"dc!D.C.!B ||
P:C
g | "A7"f2e dcB | "D"A2F A2B | "A7"G2E G2B | "D"A2F A2g |\
"A7"f2e dcB | "D"A2F A2B | "A7"G2E cBc | "D"d3 !D.C.! d2 |]

